X: 38290
T: St. Michael's
R: jig
M: 6/8
K: Dmajor
|:Add Bdd|AFD ~D3|DFA GBd|AFD ~E3|
DFA GBd|Adc d2e|f2e d2B|AFA ~B3:|
|:Bcd edB|AdB AFA|Bcd ede|fbf afe|
d2e fdB|AFA d2e|f2e d2B|AFA ~B3:|

